img/warranty.svg

<svg width="179" height="202" viewBox="0 0 179 202" fill="none" xmlns="http://www.w3.org/2000/svg">
<g filter="url(#filter0_d)">
<g clip-path="url(#clip0)">
<path d="M81.6941 174.636C81.5901 174.506 71.1991 161.64 69.0851 158.876C67.7641 157.149 65.7781 156.198 63.4921 156.198C60.9321 156.198 58.6561 157.368 57.9801 157.751L52.4941 160.494C50.7211 160.015 46.9071 158.544 43.2141 154.226C39.9301 150.387 39.9531 145.24 40.1281 143.127L46.0211 137.234C49.1141 134.517 48.4731 130.718 47.2671 128.803L47.0481 128.492C47.0481 128.492 34.1861 112.271 32.3821 109.994C31.3931 108.745 29.9071 108.056 28.1981 108.056C25.3491 108.056 22.3191 110.031 21.4421 110.648C10.5571 118.397 9.85611 125.21 9.81111 125.961L9.78711 126.375L9.86111 126.784C16.2731 162.51 35.8871 177.921 45.3141 185.327C46.4621 186.228 47.4541 187.008 48.1681 187.633C54.7311 193.38 61.9301 194 64.7211 194C67.0961 193.999 69.2011 193.595 70.8101 192.829C75.1761 190.751 80.2351 184.819 81.6821 183.051C84.1831 179.992 82.9651 176.452 81.8501 174.843L81.6941 174.636ZM67.8011 186.509C67.3021 186.746 66.2311 187 64.7201 187C63.1601 187 57.6881 186.666 52.7761 182.368C51.9221 181.621 50.8631 180.789 49.6371 179.825C40.9431 172.995 22.9081 158.824 16.8571 126.141C17.1461 125.162 18.6861 121.203 25.4771 116.37C26.1291 115.917 26.9851 115.466 27.5961 115.228C30.4271 118.8 39.0061 129.62 41.0981 132.258L33.5701 139.785L33.3671 140.84C33.2861 141.262 31.4561 151.249 37.8941 158.777C44.1801 166.126 51.1441 167.444 52.4771 167.633L53.5591 167.787L61.2031 163.964L61.4211 163.846C61.7021 163.679 62.7561 163.198 63.4921 163.198C63.5281 163.198 63.5571 163.199 63.5801 163.201C65.7291 166.001 74.6851 177.098 76.0801 178.825C76.0811 178.829 76.0821 178.832 76.0841 178.835C73.5221 181.93 69.9111 185.504 67.8011 186.509Z" fill="white"/>
<path d="M141.85 65.824C147.362 60.647 149.006 53.849 146.883 45.041C146.676 44.185 146.035 43.5 145.194 43.239C144.352 42.977 143.434 43.179 142.78 43.769L134.559 51.172C133.121 50.377 130.883 48.721 130.094 45.842L136.897 39.113C137.844 38.175 137.889 36.66 137.001 35.667L136.815 35.46C136.622 35.244 136.393 35.064 136.137 34.927C135.977 34.841 132.149 32.811 127.313 32.811C122.604 32.811 118.454 34.732 115.311 38.367C109.311 45.305 110.754 53.409 111.768 56.838L108.28 60.326L97.9962 51.09L102.713 47.824L82.6712 34.1L72.0702 44.703L85.7942 64.744L89.0602 60.027L98.2972 70.309L95.0022 73.603C93.5022 73.125 91.1192 72.551 88.3392 72.551C82.9102 72.551 78.1032 74.725 74.3772 78.91C74.1062 79.239 67.7782 87.075 71.6262 97.531C71.9102 98.304 72.5572 98.887 73.3552 99.091C74.1512 99.294 75.0002 99.092 75.6192 98.55L83.9142 91.291C85.2372 91.858 87.5362 93.371 88.5732 97.216L81.1892 104.732C80.5552 105.377 80.3192 106.314 80.5722 107.182C80.8252 108.05 81.5262 108.714 82.4072 108.919C82.5172 108.944 85.1312 109.542 88.5822 109.542C95.4222 109.542 100.694 107.271 103.827 102.975C107.19 98.362 107.921 93.542 107.821 89.887L124.038 106.104L124.21 106.262C125.731 107.522 128.528 108.987 131.661 108.987C133.888 108.987 136.286 108.246 138.513 106.163L144.031 100.647L144.133 100.543C149.145 95.185 146.391 88.845 144.233 86.241L127.288 69.282C128.315 69.388 129.436 69.463 130.61 69.463C135.498 69.462 139.279 68.238 141.85 65.824ZM88.5512 51.978L85.8172 55.927L78.5412 45.302L83.2722 40.57L93.8972 47.846L89.9472 50.58L104.739 63.866L100.645 67.959L101.836 66.767L88.5512 51.978ZM102.113 85.502C102.222 85.815 104.728 93.248 99.7852 100.029C97.0152 103.827 92.0372 104.555 88.3852 104.541L93.0882 99.754C93.6542 99.178 93.9082 98.363 93.7682 97.567C91.9772 87.42 84.0232 86.083 83.6852 86.031C82.9562 85.921 82.2142 86.135 81.6582 86.62L75.4542 92.048C74.9322 86.488 77.8672 82.559 78.2132 82.116C80.9342 79.086 84.3402 77.55 88.3382 77.55C91.8532 77.55 94.5692 78.761 94.5872 78.77C95.5402 79.209 96.6632 79.011 97.4052 78.269L116.405 59.269C117.13 58.545 117.339 57.453 116.932 56.513C116.897 56.43 113.438 48.173 119.09 41.637C121.285 39.098 124.051 37.811 127.311 37.811C128.541 37.811 129.694 37.994 130.676 38.232L125.629 43.225C125.078 43.769 124.811 44.537 124.904 45.305C125.916 53.605 133.873 56.382 134.211 56.496C135.066 56.784 136.012 56.59 136.684 55.985L142.733 50.538C143.106 55.402 141.713 59.092 138.424 62.18C136.416 64.067 133.065 64.463 130.606 64.463C126.917 64.463 123.655 63.598 123.624 63.59C122.759 63.354 121.829 63.604 121.194 64.243L102.694 82.91C102.023 83.587 101.801 84.6 102.113 85.502ZM107.615 87.344C107.615 87.347 107.615 87.349 107.615 87.352C107.615 87.349 107.615 87.347 107.615 87.344ZM107.434 86.223C107.444 86.275 107.454 86.327 107.463 86.381C107.453 86.329 107.443 86.274 107.434 86.223ZM140.525 97.079L135.046 102.555C131.798 105.535 128.146 102.987 127.47 102.468L108.827 83.823L123.768 68.748L121.733 70.801L140.44 89.507C140.9 90.099 143.537 93.794 140.525 97.079ZM125.316 69.025C125.324 69.026 125.332 69.027 125.339 69.029C125.332 69.027 125.324 69.026 125.316 69.025ZM124.473 68.882C124.493 68.886 124.518 68.89 124.539 68.894C124.516 68.89 124.494 68.886 124.473 68.882Z" fill="white"/>
<path d="M108.162 6.00201C71.7542 6.00201 42.2402 35.516 42.2402 71.924C42.2402 105.441 67.2602 133.096 99.6382 137.278V163.502C99.6382 163.502 157.077 142.259 171.607 89.88C171.685 89.597 171.746 89.342 171.818 89.068C171.931 88.644 172.043 88.218 172.148 87.791C172.212 87.528 172.267 87.277 172.326 87.022C173.463 82.171 174.084 77.121 174.084 71.924C174.084 35.516 144.57 6.00201 108.162 6.00201ZM165.51 85.424L165.504 85.451L165.498 85.478L165.469 85.608C165.43 85.778 165.393 85.947 165.35 86.123C165.256 86.499 165.159 86.874 165.049 87.284L164.945 87.684C164.92 87.792 164.892 87.9 164.863 88.008C159.299 108.064 146.343 125.708 126.357 140.45C118.984 145.888 111.949 149.914 106.638 152.625V137.277V131.123L100.534 130.335C71.2912 126.558 49.2392 101.446 49.2392 71.923C49.2392 39.433 75.6712 13.001 108.161 13.001C140.649 13.001 167.083 39.433 167.083 71.923C167.084 76.432 166.555 80.974 165.51 85.424Z" fill="white"/>
<path d="M58.583 187.998C55.792 187.998 48.5939 187.378 42.0289 181.634C41.3149 181.009 40.3229 180.23 39.1749 179.328C29.749 171.922 10.1339 156.511 3.72195 120.785L3.64795 120.376L3.67195 119.962C3.71595 119.21 4.41795 112.398 15.3029 104.649C16.1799 104.032 19.2099 102.057 22.0589 102.057C23.7669 102.057 25.2529 102.745 26.2429 103.995C28.0469 106.272 40.909 122.493 40.909 122.493L41.1279 122.804C42.334 124.719 42.9749 128.518 39.882 131.235L33.9889 137.128C33.8139 139.24 33.791 144.388 37.075 148.227C40.767 152.544 44.582 154.016 46.3549 154.495L51.841 151.752C52.5169 151.369 54.7929 150.199 57.353 150.199C59.639 150.199 61.625 151.15 62.9459 152.877C65.0599 155.641 75.4499 168.507 75.5549 168.637L75.7099 168.844C76.8249 170.453 78.0429 173.993 75.5419 177.052C74.0949 178.821 69.0369 184.752 64.6699 186.83C63.063 187.593 60.958 187.997 58.583 187.998ZM10.7199 120.14C16.7709 152.823 34.806 166.994 43.5 173.824C44.726 174.788 45.785 175.62 46.639 176.367C51.5509 180.665 57.0229 180.999 58.583 180.999C60.094 180.999 61.165 180.745 61.664 180.508C63.774 179.503 67.3859 175.929 69.9479 172.834C69.9469 172.831 69.9449 172.828 69.9439 172.824C68.5499 171.097 59.5929 160 57.444 157.2C57.421 157.198 57.3909 157.197 57.3559 157.197C56.6199 157.197 55.5659 157.678 55.285 157.845L55.067 157.963L47.423 161.786L46.341 161.632C45.0079 161.443 38.0439 160.124 31.7579 152.776C25.3199 145.249 27.15 135.261 27.2309 134.839L27.4339 133.784L34.9619 126.257C32.8699 123.618 24.2909 112.799 21.4599 109.227C20.8489 109.464 19.9929 109.915 19.3409 110.369C12.5479 115.202 11.0079 119.161 10.7199 120.14Z" fill="#3A3A3A"/>
<path d="M82.443 103.54C78.991 103.54 76.378 102.942 76.268 102.917C75.387 102.712 74.685 102.048 74.433 101.18C74.181 100.312 74.416 99.374 75.05 98.73L82.434 91.214C81.397 87.369 79.098 85.857 77.775 85.289L69.48 92.548C68.86 93.09 68.012 93.292 67.216 93.089C66.418 92.886 65.772 92.302 65.487 91.53C61.639 81.073 67.967 73.237 68.238 72.908C71.964 68.723 76.771 66.549 82.2 66.549C84.98 66.549 87.362 67.123 88.863 67.601L105.629 50.836C104.616 47.406 103.172 39.302 109.172 32.365C112.315 28.731 116.465 26.809 121.174 26.809C126.011 26.809 129.838 28.838 129.999 28.925C130.254 29.062 130.483 29.242 130.676 29.458L130.862 29.665C131.752 30.658 131.707 32.173 130.758 33.111L123.955 39.84C124.744 42.719 126.983 44.375 128.42 45.17L136.642 37.767C137.296 37.177 138.214 36.975 139.055 37.237C139.897 37.498 140.538 38.182 140.745 39.039C142.868 47.848 141.223 54.645 135.712 59.822C133.142 62.236 129.359 63.46 124.47 63.46C121.681 63.46 119.146 63.053 117.631 62.746L101.127 79.399C101.856 82.58 102.758 90.019 97.688 96.973C94.555 101.269 89.283 103.54 82.443 103.54ZM82.247 98.539C85.898 98.554 90.878 97.825 93.647 94.027C98.591 87.246 96.085 79.813 95.976 79.5C95.663 78.598 95.885 77.585 96.558 76.907L115.058 58.24C115.692 57.601 116.622 57.351 117.488 57.587C117.518 57.595 120.781 58.46 124.47 58.46C126.928 58.46 130.281 58.064 132.288 56.177C135.576 53.089 136.969 49.399 136.597 44.535L130.548 49.982C129.876 50.586 128.931 50.781 128.075 50.493C127.737 50.379 119.78 47.602 118.768 39.302C118.674 38.534 118.941 37.766 119.492 37.222L124.539 32.229C123.558 31.991 122.404 31.808 121.174 31.808C117.915 31.808 115.15 33.096 112.953 35.634C107.302 42.17 110.761 50.427 110.796 50.51C111.201 51.45 110.992 52.543 110.268 53.266L91.268 72.266C90.527 73.008 89.403 73.206 88.451 72.767C88.433 72.759 85.716 71.547 82.201 71.547C78.203 71.547 74.797 73.083 72.076 76.113C71.729 76.555 68.794 80.485 69.317 86.045L75.521 80.617C76.077 80.131 76.819 79.917 77.548 80.028C77.885 80.08 85.839 81.417 87.63 91.564C87.771 92.36 87.518 93.174 86.951 93.751L82.247 98.539Z" fill="#F0C42E"/>
<path d="M82.9209 54.025L92.1579 64.307L95.6979 60.766L82.4129 45.976L79.6779 49.925L72.4019 39.301L77.1339 34.569L87.7589 41.845L83.8089 44.579L98.5999 57.865L102.141 54.324L91.8579 45.088L96.5749 41.822L76.5329 28.098L65.9319 38.701L79.6559 58.742L82.9209 54.025Z" fill="#3A3A3A"/>
<path d="M121.147 63.28C119.734 63.134 118.507 62.924 117.63 62.746L115.596 64.799L134.302 83.505C134.762 84.097 137.399 87.792 134.386 91.077L128.908 96.553C125.66 99.533 122.007 96.985 121.332 96.466L102.69 77.821L101.127 79.399C101.372 80.469 101.632 82.029 101.682 83.884L117.899 100.102L118.072 100.26C119.593 101.52 122.39 102.985 125.522 102.985C127.75 102.985 130.147 102.244 132.375 100.161L137.893 94.645L137.995 94.542C143.007 89.184 140.252 82.843 138.094 80.239L121.147 63.28Z" fill="#3A3A3A"/>
<path d="M102.023 7C134.512 7 160.945 33.432 160.945 65.922C160.945 70.43 160.416 74.972 159.372 79.422L159.366 79.449L159.359 79.476L159.33 79.606C159.292 79.776 159.254 79.945 159.212 80.121C159.118 80.497 159.021 80.872 158.91 81.282L158.807 81.682C158.781 81.79 158.753 81.898 158.724 82.006C153.16 102.062 140.204 119.706 120.218 134.448C112.845 139.886 105.81 143.912 100.499 146.623V131.275V125.121L94.395 124.333C65.152 120.556 43.1011 95.444 43.1011 65.921C43.1021 33.432 69.5341 7 102.023 7ZM102.023 0C65.6161 0 36.1021 29.514 36.1021 65.922C36.1021 99.439 61.1221 127.094 93.5 131.276V157.5C93.5 157.5 150.939 136.257 165.47 83.878C165.548 83.595 165.608 83.34 165.68 83.066C165.794 82.642 165.905 82.216 166.011 81.789C166.074 81.526 166.13 81.275 166.188 81.02C167.326 76.169 167.946 71.119 167.946 65.922C167.945 29.514 138.432 0 102.023 0Z" fill="#3A3A3A"/>
</g>
</g>
<defs>
<filter id="filter0_d" x="0" y="0" width="179" height="203" filterUnits="userSpaceOnUse" color-interpolation-filters="sRGB">
<feFlood flood-opacity="0" result="BackgroundImageFix"/>
<feColorMatrix in="SourceAlpha" type="matrix" values="0 0 0 0 0 0 0 0 0 0 0 0 0 0 0 0 0 0 127 0"/>
<feOffset dy="4"/>
<feGaussianBlur stdDeviation="2"/>
<feColorMatrix type="matrix" values="0 0 0 0 0 0 0 0 0 0 0 0 0 0 0 0 0 0 0.25 0"/>
<feBlend mode="normal" in2="BackgroundImageFix" result="effect1_dropShadow"/>
<feBlend mode="normal" in="SourceGraphic" in2="effect1_dropShadow" result="shape"/>
</filter>
<clipPath id="clip0">
<rect x="4" width="171" height="195" fill="white"/>
</clipPath>
</defs>
</svg>

<svg width="179" height="202" fill="none" xmlns="http://www.w3.org/2000/svg"><g filter="url(#filter0_d)"><g clip-path="url(#clip0)"><path d="M81.694 174.636c-.104-.13-10.495-12.996-12.609-15.76-1.32-1.727-3.307-2.678-5.593-2.678-2.56 0-4.836 1.17-5.512 1.553l-5.486 2.743c-1.773-.479-5.587-1.95-9.28-6.268-3.284-3.839-3.26-8.986-3.086-11.099l5.893-5.893c3.093-2.717 2.452-6.516 1.246-8.431l-.219-.311s-12.862-16.221-14.666-18.498c-.989-1.249-2.475-1.938-4.184-1.938-2.849 0-5.879 1.975-6.756 2.592-10.885 7.749-11.586 14.562-11.63 15.313l-.025.414.074.409c6.412 35.726 26.026 51.137 35.453 58.543 1.148.901 2.14 1.681 2.854 2.306C54.731 193.38 61.93 194 64.721 194c2.375-.001 4.48-.405 6.09-1.171 4.365-2.078 9.424-8.01 10.871-9.778 2.501-3.059 1.283-6.599.168-8.208l-.156-.207zm-13.893 11.873c-.499.237-1.57.491-3.08.491-1.56 0-7.033-.334-11.945-4.632-.854-.747-1.913-1.579-3.139-2.543-8.694-6.83-26.729-21.001-32.78-53.684.29-.979 1.83-4.938 8.62-9.771a11.385 11.385 0 012.12-1.142c2.83 3.572 11.41 14.392 13.501 17.03l-7.528 7.527-.203 1.055c-.08.422-1.91 10.409 4.527 17.937 6.286 7.349 13.25 8.667 14.583 8.856l1.082.154 7.644-3.823.218-.118c.281-.167 1.335-.648 2.071-.648.036 0 .065.001.088.003 2.15 2.8 11.105 13.897 12.5 15.624a.03.03 0 00.004.01c-2.562 3.095-6.173 6.669-8.283 7.674zM141.85 65.824c5.512-5.177 7.156-11.975 5.033-20.783a2.502 2.502 0 00-4.103-1.272l-8.221 7.403c-1.438-.795-3.676-2.451-4.465-5.33l6.803-6.729a2.502 2.502 0 00.104-3.446l-.186-.207a2.473 2.473 0 00-.678-.533c-.16-.086-3.988-2.116-8.824-2.116-4.709 0-8.859 1.921-12.002 5.556-6 6.938-4.557 15.042-3.543 18.471l-3.488 3.488-10.284-9.236 4.717-3.266L82.671 34.1l-10.6 10.603 13.723 20.041 3.266-4.717 9.237 10.282-3.295 3.294c-1.5-.478-3.883-1.052-6.663-1.052-5.429 0-10.236 2.174-13.962 6.359-.27.329-6.599 8.165-2.75 18.621a2.501 2.501 0 003.992 1.019l8.295-7.259c1.323.567 3.622 2.08 4.66 5.925l-7.385 7.516a2.498 2.498 0 001.218 4.187c.11.025 2.724.623 6.175.623 6.84 0 12.112-2.271 15.245-6.567 3.363-4.613 4.094-9.433 3.994-13.088l16.217 16.217.172.158c1.521 1.26 4.318 2.725 7.451 2.725 2.227 0 4.625-.741 6.852-2.824l5.518-5.516.102-.104c5.012-5.358 2.258-11.698.1-14.302l-16.945-16.959c1.027.106 2.148.181 3.322.181 4.888-.001 8.669-1.225 11.24-3.639zM88.551 51.978l-2.734 3.949-7.276-10.625 4.731-4.732 10.625 7.276-3.95 2.734 14.792 13.286-4.094 4.093 1.191-1.192-13.285-14.789zm13.562 33.524c.109.313 2.615 7.746-2.328 14.527-2.77 3.798-7.748 4.526-11.4 4.512l4.703-4.787c.566-.576.82-1.391.68-2.187-1.79-10.147-9.745-11.484-10.083-11.536a2.513 2.513 0 00-2.027.589l-6.204 5.428c-.522-5.56 2.413-9.489 2.76-9.932 2.72-3.03 6.126-4.566 10.124-4.566 3.515 0 6.231 1.211 6.25 1.22a2.501 2.501 0 002.817-.501l19-19a2.493 2.493 0 00.527-2.756c-.035-.083-3.494-8.34 2.158-14.876 2.195-2.539 4.961-3.826 8.221-3.826 1.23 0 2.383.183 3.365.421l-5.047 4.993a2.5 2.5 0 00-.725 2.08c1.012 8.3 8.969 11.077 9.307 11.191a2.503 2.503 0 002.473-.511l6.049-5.447c.373 4.864-1.02 8.554-4.309 11.642-2.008 1.887-5.359 2.283-7.818 2.283-3.689 0-6.951-.865-6.982-.873a2.502 2.502 0 00-2.43.653l-18.5 18.667a2.521 2.521 0 00-.581 2.592zm5.502 1.842v0zm-.181-1.121zm33.091 10.856l-5.479 5.476c-3.248 2.98-6.9.432-7.576-.087l-18.643-18.645 14.941-15.075-2.035 2.053 18.707 18.706c.46.592 3.097 4.287.085 7.572zm-15.209-28.054zm-.843-.143l.066.012a4.19 4.19 0 01-.066-.012z" fill="#fff"/><path d="M108.162 6.002c-36.408 0-65.922 29.514-65.922 65.922 0 33.517 25.02 61.172 57.398 65.354v26.224s57.439-21.243 71.969-73.622c.078-.283.139-.538.211-.812.113-.424.225-.85.33-1.277.064-.263.119-.514.178-.769a66.07 66.07 0 001.758-15.098c0-36.408-29.514-65.922-65.922-65.922zm57.348 79.422l-.006.027-.006.027-.029.13c-.039.17-.076.339-.119.515-.094.376-.191.751-.301 1.161l-.104.4a9.602 9.602 0 01-.082.324c-5.564 20.056-18.52 37.7-38.506 52.442-7.373 5.438-14.408 9.464-19.719 12.175V131.123l-6.104-.788c-29.243-3.777-51.295-28.889-51.295-58.412 0-32.49 26.432-58.922 58.922-58.922 32.488 0 58.922 26.432 58.922 58.922a59.082 59.082 0 01-1.573 13.501z" fill="#fff"/><path d="M58.583 187.998c-2.791 0-9.99-.62-16.554-6.364-.714-.625-1.706-1.404-2.854-2.306-9.426-7.406-29.041-22.817-35.453-58.543l-.074-.409.024-.414c.044-.752.746-7.564 11.63-15.313.878-.617 3.908-2.592 6.757-2.592 1.708 0 3.194.688 4.184 1.938 1.804 2.277 14.666 18.498 14.666 18.498l.219.311c1.206 1.915 1.847 5.714-1.246 8.431l-5.893 5.893c-.175 2.112-.198 7.26 3.086 11.099 3.692 4.317 7.507 5.789 9.28 6.268l5.486-2.743c.676-.383 2.952-1.553 5.512-1.553 2.286 0 4.272.951 5.593 2.678 2.114 2.764 12.504 15.63 12.609 15.76l.155.207c1.115 1.609 2.333 5.149-.168 8.208-1.447 1.769-6.505 7.7-10.872 9.778-1.607.763-3.712 1.167-6.087 1.168zM10.72 120.14c6.05 32.683 24.086 46.854 32.78 53.684 1.226.964 2.285 1.796 3.139 2.543 4.912 4.298 10.384 4.632 11.944 4.632 1.511 0 2.582-.254 3.081-.491 2.11-1.005 5.722-4.579 8.284-7.674l-.004-.01C68.55 171.097 59.593 160 57.444 157.2a1.065 1.065 0 00-.088-.003c-.736 0-1.79.481-2.071.648l-.218.118-7.644 3.823-1.082-.154c-1.333-.189-8.297-1.508-14.583-8.856-6.438-7.527-4.608-17.515-4.527-17.937l.203-1.055 7.528-7.527-13.502-17.03c-.611.237-1.467.688-2.12 1.142-6.792 4.833-8.332 8.792-8.62 9.771z" fill="#3A3A3A"/><path d="M82.443 103.54c-3.452 0-6.065-.598-6.175-.623a2.5 2.5 0 01-1.218-4.187l7.384-7.516c-1.037-3.845-3.336-5.357-4.659-5.925l-8.295 7.259a2.503 2.503 0 01-3.993-1.018c-3.848-10.457 2.48-18.293 2.751-18.622 3.726-4.185 8.533-6.359 13.962-6.359 2.78 0 5.162.574 6.663 1.052l16.766-16.765c-1.013-3.43-2.457-11.534 3.543-18.471 3.143-3.634 7.293-5.556 12.002-5.556 4.837 0 8.664 2.029 8.825 2.116.255.137.484.317.677.533l.186.207c.89.993.845 2.508-.104 3.446l-6.803 6.729c.789 2.879 3.028 4.535 4.465 5.33l8.222-7.403a2.5 2.5 0 014.103 1.272c2.123 8.809.478 15.606-5.033 20.783-2.57 2.414-6.353 3.638-11.242 3.638-2.789 0-5.324-.407-6.839-.714l-16.504 16.653c.729 3.181 1.631 10.62-3.439 17.574-3.133 4.296-8.405 6.567-15.245 6.567zm-.196-5.001c3.651.015 8.631-.714 11.4-4.512 4.944-6.781 2.438-14.214 2.329-14.527a2.518 2.518 0 01.582-2.593l18.5-18.667a2.501 2.501 0 012.43-.653c.03.008 3.293.873 6.982.873 2.458 0 5.811-.396 7.818-2.283 3.288-3.088 4.681-6.778 4.309-11.642l-6.049 5.447a2.505 2.505 0 01-2.473.511c-.338-.114-8.295-2.891-9.307-11.191a2.496 2.496 0 01.724-2.08l5.047-4.993a14.37 14.37 0 00-3.365-.421c-3.259 0-6.024 1.288-8.221 3.826-5.651 6.536-2.192 14.793-2.157 14.876.405.94.196 2.033-.528 2.756l-19 19a2.5 2.5 0 01-2.817.501c-.018-.008-2.735-1.22-6.25-1.22-3.998 0-7.404 1.536-10.125 4.566-.347.442-3.282 4.372-2.759 9.932l6.204-5.428a2.506 2.506 0 012.027-.589c.337.052 8.291 1.389 10.082 11.536a2.498 2.498 0 01-.679 2.187l-4.704 4.788z" fill="#F0C42E"/><path d="M82.92 54.025l9.238 10.282 3.54-3.541-13.285-14.79-2.735 3.949-7.276-10.624 4.732-4.732 10.625 7.276-3.95 2.734 14.79 13.286 3.542-3.541-10.283-9.236 4.717-3.266-20.042-13.724-10.601 10.603 13.724 20.041 3.265-4.717zM121.147 63.28a37.19 37.19 0 01-3.517-.534l-2.034 2.053 18.706 18.706c.46.592 3.097 4.287.084 7.572l-5.478 5.476c-3.248 2.98-6.901.432-7.576-.087L102.69 77.821l-1.563 1.578c.245 1.07.505 2.63.555 4.485l16.217 16.218.173.158c1.521 1.26 4.318 2.725 7.45 2.725 2.228 0 4.625-.741 6.853-2.824l5.518-5.516.102-.103c5.012-5.358 2.257-11.699.099-14.303L121.147 63.28z" fill="#3A3A3A"/><path d="M102.023 7c32.489 0 58.922 26.432 58.922 58.922 0 4.508-.529 9.05-1.573 13.5l-.006.027-.007.027-.029.13c-.038.17-.076.339-.118.515-.094.376-.191.751-.302 1.161l-.103.4c-.026.108-.054.216-.083.324-5.564 20.056-18.52 37.7-38.506 52.442-7.373 5.438-14.408 9.464-19.719 12.175V125.121l-6.104-.788c-29.243-3.777-51.294-28.889-51.294-58.412C43.102 33.432 69.534 7 102.023 7zm0-7c-36.407 0-65.92 29.514-65.92 65.922 0 33.517 25.02 61.172 57.397 65.354V157.5s57.439-21.243 71.97-73.622c.078-.283.138-.538.21-.812.114-.424.225-.85.331-1.277.063-.263.119-.514.177-.769a66.014 66.014 0 001.758-15.098C167.945 29.514 138.432 0 102.023 0z" fill="#3A3A3A"/></g></g><defs><clipPath id="clip0"><path fill="#fff" d="M4 0h171v195H4z"/></clipPath><filter id="filter0_d" x="0" y="0" width="179" height="203" filterUnits="userSpaceOnUse" color-interpolation-filters="sRGB"><feFlood flood-opacity="0" result="BackgroundImageFix"/><feColorMatrix in="SourceAlpha" values="0 0 0 0 0 0 0 0 0 0 0 0 0 0 0 0 0 0 127 0"/><feOffset dy="4"/><feGaussianBlur stdDeviation="2"/><feColorMatrix values="0 0 0 0 0 0 0 0 0 0 0 0 0 0 0 0 0 0 0.25 0"/><feBlend in2="BackgroundImageFix" result="effect1_dropShadow"/><feBlend in="SourceGraphic" in2="effect1_dropShadow" result="shape"/></filter></defs></svg>
